X:373
T:Reel 373
M:4/4
K:Dmaj
L:1/8
AF|EDEF D2B,A,|B,DDE D2EF|A2FE D2B,A,|B,EED E2FG|A2FE D2B,A,|EDB,D E2FG|AFED B,DE2DB,|A,B,DE FDd2|A2FD EDB,D|A,DDD EDD2|FGFE D2B,A,|B,DDD EDD2|GFFE D2B,D|A,B,DE FDE2|A2FE FDDD|A,B,DE FDD2|
